assets/illustrations/default/professional-8.svg

<svg xmlns="http://www.w3.org/2000/svg" width="1080" height="1081" fill="none"><path fill="#F5F5F5" d="m784.274 814.599-10.067-51.658h119.655l28.222 134.014h-.165c1.321 6.932 2.146 14.029 2.146 21.291 0 59.745-48.522 108.264-108.268 108.264-59.745 0-108.267-48.519-108.267-108.264.165-48.853 32.513-90.113 76.744-103.647M299.382 814.599l10.067-51.658H189.794l-28.222 134.014h.165c-1.321 6.932-2.146 14.029-2.146 21.291 0 59.745 48.522 108.264 108.268 108.264 59.745 0 108.267-48.519 108.267-108.264-.165-48.853-32.513-90.113-76.744-103.647"/><path fill="#0096FA" d="m774.538 463.721-156.46-35.319h-156.46l-156.459 35.319c-49.348 11.058-87.637 50.008-98.2 99.521L152 823.347h775.367l-54.959-260.105c-10.068-49.513-48.523-88.298-97.87-99.521"/><path fill="url(#a)" d="m360.117 651.539-26.572 171.809h190.789z"/><path fill="url(#b)" d="m719.743 651.539 26.407 171.809H555.527z"/><path fill="#1968F0" d="M591.672 781.259h81.696c4.621 0 8.252-3.631 8.252-8.253v-97.704h-98.2v97.704c0 4.622 3.631 8.253 8.252 8.253"/><path fill="#F8BC9A" d="M668.582 61.514H486.705l-13.863 13.863V417.51h134.344v-54.794h61.396l13.863-13.864V75.542z"/><path fill="#F06305" d="m486.706 61.514-13.863 13.863-.991 156.79.991.66 138.8-139.295 70.803 85.491V75.377l-13.864-13.863z"/><path fill="#F8BC9A" d="M456.336 287.622h38.125v-59.745h-51.659v46.212c0 7.427 6.107 13.533 13.534 13.533"/><path fill="url(#c)" d="M504.035 287.621h-31.193v72.619h31.193z"/><path fill="url(#d)" d="M559.653 381.695h47.532v-18.98h-47.532z"/><path fill="url(#e)" d="M607.02 425.596v-43.901H472.676v43.901l-21.786 5.612 81.696 88.462c3.961 4.291 10.562 4.291 14.523 0l81.696-88.462z"/><path fill="#F06305" fill-rule="evenodd" d="M627.811 210.917a2.475 2.475 0 0 1 3.261 1.273l30.698 69.977a2.476 2.476 0 0 1-2.267 3.471h-33.669a2.476 2.476 0 0 1 0-4.952h29.88l-29.176-66.507a2.476 2.476 0 0 1 1.273-3.262" clip-rule="evenodd" opacity=".45"/><path fill="url(#f)" d="m458.152 740.497-110.908-5.941-12.873 83.346 34.329 18.485c16.669 6.106 34.329 8.252 51.988 6.436l51.493-5.281z"/><path fill="url(#g)" d="M783.286 1021.4 445.115 898.773c-3.3-1.155-5.446-4.291-5.446-7.757V734.061c0-5.611 5.281-9.572 10.563-7.922L783.121 826.65"/><path fill="url(#h)" d="m596.127 762.61 137.315-21.621 11.388 73.939-50.008 33.834c-15.844 7.757-33.338 11.717-50.998 11.717h-51.823z"/><path fill="url(#i)" d="m300.373 1021.4 338.171-122.627c3.301-1.155 5.446-4.291 5.446-7.757V734.061c0-5.611-5.281-9.572-10.563-7.922L300.538 826.65"/><mask id="j" width="407" height="237" x="336" y="355" maskUnits="userSpaceOnUse" style="mask-type:luminance"><path fill="#fff" d="M471.357 487.484H336.188l1.485-127.743h134.674zM742.356 355.12H607.187v236.34h135.169z"/></mask><g mask="url(#j)"><path fill="#072F73" fill-rule="evenodd" d="M539.85 398.031c-74.579 0-136.325 70.5-136.325 159.596h-11.552c0-93.771 65.336-171.148 147.877-171.148 82.544 0 147.877 77.546 147.877 171.148v42.746h-11.552v-42.746c0-88.935-61.75-159.596-136.325-159.596" clip-rule="evenodd"/></g><path fill="#E0E0E0" d="M681.619 657.48c21.238 0 38.454-17.217 38.454-38.455s-17.216-38.455-38.454-38.455-38.455 17.217-38.455 38.455 17.217 38.455 38.455 38.455"/><path fill="#F5F5F5" d="M681.619 640.15c11.667 0 21.125-9.458 21.125-21.125s-9.458-21.126-21.125-21.126-21.126 9.459-21.126 21.126 9.458 21.125 21.126 21.125"/><path fill="#F5F5F5" fill-rule="evenodd" d="M350.307 561.198c5.572-25.34 29.472-42.41 55.347-39.356 25.878 3.055 45.111 25.167 44.572 51.22l-8.251-.17c.452-21.81-15.634-40.298-37.288-42.854-21.658-2.557-41.659 11.73-46.32 32.932z" clip-rule="evenodd"/><path fill="#072F73" fill-rule="evenodd" d="M353.482 521.233c5.754-26.167 30.434-43.794 57.152-40.64 26.722 3.155 46.585 25.991 46.029 52.893l-.001.018-2.805 117.983v.011c-.221 10.796-7.538 20.234-17.856 23.244l-.022.006-27.562 7.922-3.191-11.104 27.54-7.915.009-.003c5.517-1.613 9.417-6.691 9.531-12.392l.001-.022 2.805-117.987v-.006c.431-20.958-15.024-38.718-35.832-41.175-20.811-2.456-40.028 11.27-44.512 31.638l-.002.01-24.922 115.367-.005.022c-1.239 5.519 1.328 11.262 6.46 14.178l24.926 14.196-5.717 10.039-24.916-14.19c-9.385-5.332-14.41-16.081-12.031-26.729l.006-.024z" clip-rule="evenodd"/><path fill="#072F73" d="M364.406 683.555c7.748 0 14.029-6.281 14.029-14.028s-6.281-14.029-14.029-14.029c-7.747 0-14.028 6.281-14.028 14.029 0 7.747 6.281 14.028 14.028 14.028M411.279 689.001c7.748 0 14.029-6.28 14.029-14.028s-6.281-14.029-14.029-14.029-14.029 6.281-14.029 14.029 6.281 14.028 14.029 14.028"/><path fill="#35DE90" fill-rule="evenodd" d="m453.101 443.274-7.716 9.678c-8.882 11.141-16.315 24.846-21.192 35.543l-5.134 11.263-22.526-10.269 5.135-11.263c5.356-11.749 13.767-27.421 24.36-40.707l7.717-9.678z" clip-rule="evenodd"/><path fill="#35DE90" fill-rule="evenodd" d="M366.914 487.192c12.048-9.971 27.909-15.205 44.595-13.327l.067.007.067.008c18.532 2.291 34.246 12.939 43.273 28.054l6.347 10.627-21.255 12.694-6.347-10.627c-5.155-8.633-14.171-14.812-24.987-16.17-9.696-1.072-18.895 1.946-25.976 7.806l-9.536 7.892-15.784-19.072z" clip-rule="evenodd"/><defs><linearGradient id="a" x1="452.813" x2="314.503" y1="728.487" y2="844.76" gradientUnits="userSpaceOnUse"><stop offset=".069" stop-color="#0096FA"/><stop offset=".337" stop-color="#0274CE"/><stop offset=".761" stop-color="#06438D"/><stop offset=".962" stop-color="#072F73"/></linearGradient><linearGradient id="b" x1="629.359" x2="764.24" y1="730.73" y2="840.351" gradientUnits="userSpaceOnUse"><stop offset=".069" stop-color="#0096FA"/><stop offset=".337" stop-color="#0274CE"/><stop offset=".761" stop-color="#06438D"/><stop offset=".962" stop-color="#072F73"/></linearGradient><linearGradient id="c" x1="516.331" x2="436.923" y1="335.717" y2="302.27" gradientUnits="userSpaceOnUse"><stop stop-color="#F8BC9A" stop-opacity="0"/><stop offset=".162" stop-color="#F8BA96" stop-opacity=".162"/><stop offset=".326" stop-color="#F7B28A" stop-opacity=".326"/><stop offset=".492" stop-color="#F6A675" stop-opacity=".492"/><stop offset=".658" stop-color="#F59559" stop-opacity=".658"/><stop offset=".825" stop-color="#F37F34" stop-opacity=".825"/><stop offset=".99" stop-color="#F06508" stop-opacity=".99"/><stop offset="1" stop-color="#F06305"/></linearGradient><linearGradient id="d" x1="563.47" x2="604.468" y1="401.397" y2="341.495" gradientUnits="userSpaceOnUse"><stop stop-color="#F8BC9A" stop-opacity="0"/><stop offset=".162" stop-color="#F8BA96" stop-opacity=".162"/><stop offset=".326" stop-color="#F7B28A" stop-opacity=".326"/><stop offset=".492" stop-color="#F6A675" stop-opacity=".492"/><stop offset=".658" stop-color="#F59559" stop-opacity=".658"/><stop offset=".825" stop-color="#F37F34" stop-opacity=".825"/><stop offset=".99" stop-color="#F06508" stop-opacity=".99"/><stop offset="1" stop-color="#F06305"/></linearGradient><linearGradient id="e" x1="540.442" x2="539.608" y1="535.53" y2="380.61" gradientUnits="userSpaceOnUse"><stop offset=".124" stop-color="#E0E0E0"/><stop offset="1" stop-color="#F5F5F5"/></linearGradient><linearGradient id="f" x1="334.765" x2="561.622" y1="783.831" y2="802.781" gradientUnits="userSpaceOnUse"><stop stop-color="#F8BC9A"/><stop offset=".249" stop-color="#F6BB9A"/><stop offset=".389" stop-color="#EEB698"/><stop offset=".501" stop-color="#E0AE96"/><stop offset=".599" stop-color="#CCA293"/><stop offset=".687" stop-color="#B3938F"/><stop offset=".769" stop-color="#93818A"/><stop offset=".846" stop-color="#6E6B84"/><stop offset=".918" stop-color="#43527D"/><stop offset=".985" stop-color="#133675"/><stop offset="1" stop-color="#072F73"/></linearGradient><linearGradient id="g" x1="501.334" x2="730.424" y1="711.224" y2="1021.3" gradientUnits="userSpaceOnUse"><stop stop-color="#F5F5F5"/><stop offset=".089" stop-color="#EBEBEB"/><stop offset=".155" stop-color="#E0E0E0"/><stop offset=".602" stop-color="#EEE"/><stop offset=".991" stop-color="#F5F5F5"/></linearGradient><linearGradient id="h" x1="779.114" x2="558.643" y1="791.685" y2="814.545" gradientUnits="userSpaceOnUse"><stop offset=".351" stop-color="#F8BC9A"/><stop offset=".455" stop-color="#F5BA99"/><stop offset=".541" stop-color="#EAB498"/><stop offset=".621" stop-color="#D9AA95"/><stop offset=".697" stop-color="#C19C91"/><stop offset=".77" stop-color="#A1898C"/><stop offset=".842" stop-color="#7B7386"/><stop offset=".912" stop-color="#4D587E"/><stop offset=".978" stop-color="#193A76"/><stop offset="1" stop-color="#072F73"/></linearGradient><linearGradient id="i" x1="363.818" x2="605.463" y1="810.882" y2="954.932" gradientUnits="userSpaceOnUse"><stop offset=".165" stop-color="#F5F5F5"/><stop offset=".489" stop-color="#EDEDED"/><stop offset=".813" stop-color="#E0E0E0"/></linearGradient></defs></svg>

<svg width="1080" height="1081" viewBox="0 0 1080 1081" fill="none" xmlns="http://www.w3.org/2000/svg">
<path d="M784.274 814.599L774.207 762.941H893.862L922.084 896.955H921.919C923.24 903.887 924.065 910.984 924.065 918.246C924.065 977.991 875.543 1026.51 815.797 1026.51C756.052 1026.51 707.53 977.991 707.53 918.246C707.695 869.393 740.043 828.133 784.274 814.599Z" fill="#F5F5F5"/>
<path d="M299.382 814.599L309.449 762.941H189.794L161.572 896.955H161.737C160.416 903.887 159.591 910.984 159.591 918.246C159.591 977.991 208.113 1026.51 267.859 1026.51C327.604 1026.51 376.126 977.991 376.126 918.246C375.961 869.393 343.613 828.133 299.382 814.599Z" fill="#F5F5F5"/>
<path d="M774.538 463.721L618.078 428.402H539.848H461.618L305.159 463.721C255.811 474.779 217.522 513.729 206.959 563.242L152 823.347H539.683H927.367L872.408 563.242C862.34 513.729 823.885 474.944 774.538 463.721Z" fill="#0096FA"/>
<path d="M360.117 651.539L333.545 823.348H524.334L360.117 651.539Z" fill="url(#paint0_linear_18735_3082)"/>
<path d="M719.743 651.539L746.15 823.348H555.527L719.743 651.539Z" fill="url(#paint1_linear_18735_3082)"/>
<path d="M591.672 781.259H673.368C677.989 781.259 681.62 777.628 681.62 773.006V675.302H583.42V773.006C583.42 777.628 587.051 781.259 591.672 781.259Z" fill="#1968F0"/>
<path d="M668.582 61.5137H486.705L472.842 75.3772V417.509H607.186V362.715H668.582C674.028 357.269 676.999 354.298 682.445 348.851V75.5422L668.582 61.5137Z" fill="#F8BC9A"/>
<path d="M486.706 61.5137L472.843 75.3772L471.852 232.167L472.843 232.827L611.643 93.5318L682.446 179.023V75.3772L668.582 61.5137H486.706Z" fill="#F06305"/>
<path d="M456.336 287.622H494.461V227.877H442.802V274.089C442.802 281.516 448.909 287.622 456.336 287.622Z" fill="#F8BC9A"/>
<path d="M504.035 287.621H472.842V360.24H504.035V287.621Z" fill="url(#paint2_linear_18735_3082)"/>
<path d="M559.653 381.695H607.185V362.715H559.653V381.695Z" fill="url(#paint3_linear_18735_3082)"/>
<path d="M607.02 425.596V381.695H472.676V425.596L450.89 431.208L532.586 519.67C536.547 523.961 543.148 523.961 547.109 519.67L628.805 431.208L607.02 425.596Z" fill="url(#paint4_linear_18735_3082)"/>
<path opacity="0.45" fill-rule="evenodd" clip-rule="evenodd" d="M627.811 210.917C629.063 210.368 630.523 210.938 631.072 212.19L661.77 282.167C662.106 282.933 662.033 283.816 661.576 284.516C661.118 285.216 660.339 285.638 659.503 285.638H625.834C624.467 285.638 623.359 284.529 623.359 283.162C623.359 281.795 624.467 280.686 625.834 280.686H655.714L626.538 214.179C625.989 212.927 626.559 211.466 627.811 210.917Z" fill="#F06305"/>
<path d="M458.152 740.497L347.244 734.556L334.371 817.902L368.7 836.387C385.369 842.493 403.029 844.639 420.688 842.823L472.181 837.542L458.152 740.497Z" fill="url(#paint5_linear_18735_3082)"/>
<path d="M783.286 1021.4L445.115 898.773C441.815 897.618 439.669 894.482 439.669 891.016V734.061C439.669 728.45 444.95 724.489 450.232 726.139L783.121 826.65" fill="url(#paint6_linear_18735_3082)"/>
<path d="M596.127 762.61L733.442 740.989L744.83 814.928L694.822 848.762C678.978 856.519 661.484 860.479 643.824 860.479H592.001L596.127 762.61Z" fill="url(#paint7_linear_18735_3082)"/>
<path d="M300.373 1021.4L638.544 898.773C641.845 897.618 643.99 894.482 643.99 891.016V734.061C643.99 728.45 638.709 724.489 633.427 726.139L300.538 826.65" fill="url(#paint8_linear_18735_3082)"/>
<mask id="mask0_18735_3082" style="mask-type:luminance" maskUnits="userSpaceOnUse" x="336" y="355" width="407" height="237">
<path d="M471.357 487.484H336.188L337.673 359.741H472.347L471.357 487.484ZM742.356 355.12H607.187V591.46H742.356V355.12Z" fill="white"/>
</mask>
<g mask="url(#mask0_18735_3082)">
<path fill-rule="evenodd" clip-rule="evenodd" d="M539.85 398.031C465.271 398.031 403.525 468.531 403.525 557.627H391.973C391.973 463.856 457.309 386.479 539.85 386.479C622.394 386.479 687.727 464.025 687.727 557.627V600.373H676.175V557.627C676.175 468.692 614.425 398.031 539.85 398.031Z" fill="#072F73"/>
</g>
<path d="M681.619 657.48C702.857 657.48 720.073 640.263 720.073 619.025C720.073 597.787 702.857 580.57 681.619 580.57C660.381 580.57 643.164 597.787 643.164 619.025C643.164 640.263 660.381 657.48 681.619 657.48Z" fill="#E0E0E0"/>
<path d="M681.619 640.15C693.286 640.15 702.744 630.692 702.744 619.025C702.744 607.358 693.286 597.899 681.619 597.899C669.951 597.899 660.493 607.358 660.493 619.025C660.493 630.692 669.951 640.15 681.619 640.15Z" fill="#F5F5F5"/>
<path fill-rule="evenodd" clip-rule="evenodd" d="M350.307 561.198C355.879 535.858 379.779 518.788 405.654 521.842C431.532 524.897 450.765 547.009 450.226 573.062L441.975 572.892C442.427 551.082 426.341 532.594 404.687 530.038C383.029 527.481 363.028 541.768 358.367 562.97L350.307 561.198Z" fill="#F5F5F5"/>
<path fill-rule="evenodd" clip-rule="evenodd" d="M353.482 521.233C359.236 495.066 383.916 477.439 410.634 480.593C437.356 483.748 457.219 506.584 456.663 533.486L456.662 533.504L453.857 651.487C453.857 651.491 453.857 651.495 453.857 651.498C453.636 662.294 446.319 671.732 436.001 674.742L435.979 674.748L408.417 682.67L405.226 671.566L432.766 663.651C432.769 663.65 432.772 663.649 432.775 663.648C438.292 662.035 442.192 656.957 442.306 651.256L442.307 651.234L445.112 533.247C445.112 533.245 445.112 533.243 445.112 533.241C445.543 512.283 430.088 494.523 409.28 492.066C388.469 489.61 369.252 503.336 364.768 523.704C364.767 523.708 364.767 523.711 364.766 523.714L339.844 639.081L339.839 639.103C338.6 644.622 341.167 650.365 346.299 653.281L371.225 667.477L365.508 677.516L340.592 663.326C331.207 657.994 326.182 647.245 328.561 636.597C328.563 636.589 328.565 636.581 328.567 636.573L353.482 521.233Z" fill="#072F73"/>
<path d="M364.406 683.555C372.154 683.555 378.435 677.274 378.435 669.527C378.435 661.779 372.154 655.498 364.406 655.498C356.659 655.498 350.378 661.779 350.378 669.527C350.378 677.274 356.659 683.555 364.406 683.555Z" fill="#072F73"/>
<path d="M411.279 689.001C419.027 689.001 425.308 682.721 425.308 674.973C425.308 667.225 419.027 660.944 411.279 660.944C403.531 660.944 397.25 667.225 397.25 674.973C397.25 682.721 403.531 689.001 411.279 689.001Z" fill="#072F73"/>
<path fill-rule="evenodd" clip-rule="evenodd" d="M453.101 443.274L445.385 452.952C436.503 464.093 429.07 477.798 424.193 488.495L419.059 499.758L396.533 489.489L401.668 478.226C407.024 466.477 415.435 450.805 426.028 437.519L433.745 427.841L453.101 443.274Z" fill="#35DE90"/>
<path fill-rule="evenodd" clip-rule="evenodd" d="M366.914 487.192C378.962 477.221 394.823 471.987 411.509 473.865L411.576 473.872L411.643 473.88C430.175 476.171 445.889 486.819 454.916 501.934L461.263 512.561L440.008 525.255L433.661 514.628C428.506 505.995 419.49 499.816 408.674 498.458C398.978 497.386 389.779 500.404 382.698 506.264L373.162 514.156L357.378 495.084L366.914 487.192Z" fill="#35DE90"/>
<defs>
<linearGradient id="paint0_linear_18735_3082" x1="452.813" y1="728.487" x2="314.503" y2="844.76" gradientUnits="userSpaceOnUse">
<stop offset="0.069479" stop-color="#0096FA"/>
<stop offset="0.3368" stop-color="#0274CE"/>
<stop offset="0.7613" stop-color="#06438D"/>
<stop offset="0.9616" stop-color="#072F73"/>
</linearGradient>
<linearGradient id="paint1_linear_18735_3082" x1="629.359" y1="730.73" x2="764.24" y2="840.351" gradientUnits="userSpaceOnUse">
<stop offset="0.069479" stop-color="#0096FA"/>
<stop offset="0.3368" stop-color="#0274CE"/>
<stop offset="0.7613" stop-color="#06438D"/>
<stop offset="0.9616" stop-color="#072F73"/>
</linearGradient>
<linearGradient id="paint2_linear_18735_3082" x1="516.331" y1="335.717" x2="436.923" y2="302.27" gradientUnits="userSpaceOnUse">
<stop stop-color="#F8BC9A" stop-opacity="0"/>
<stop offset="0.1621" stop-color="#F8BA96" stop-opacity="0.1621"/>
<stop offset="0.3263" stop-color="#F7B28A" stop-opacity="0.3263"/>
<stop offset="0.4917" stop-color="#F6A675" stop-opacity="0.4917"/>
<stop offset="0.6578" stop-color="#F59559" stop-opacity="0.6578"/>
<stop offset="0.8246" stop-color="#F37F34" stop-opacity="0.8246"/>
<stop offset="0.9897" stop-color="#F06508" stop-opacity="0.9897"/>
<stop offset="1" stop-color="#F06305"/>
</linearGradient>
<linearGradient id="paint3_linear_18735_3082" x1="563.47" y1="401.397" x2="604.468" y2="341.495" gradientUnits="userSpaceOnUse">
<stop stop-color="#F8BC9A" stop-opacity="0"/>
<stop offset="0.1621" stop-color="#F8BA96" stop-opacity="0.1621"/>
<stop offset="0.3263" stop-color="#F7B28A" stop-opacity="0.3263"/>
<stop offset="0.4917" stop-color="#F6A675" stop-opacity="0.4917"/>
<stop offset="0.6578" stop-color="#F59559" stop-opacity="0.6578"/>
<stop offset="0.8246" stop-color="#F37F34" stop-opacity="0.8246"/>
<stop offset="0.9897" stop-color="#F06508" stop-opacity="0.9897"/>
<stop offset="1" stop-color="#F06305"/>
</linearGradient>
<linearGradient id="paint4_linear_18735_3082" x1="540.442" y1="535.53" x2="539.608" y2="380.61" gradientUnits="userSpaceOnUse">
<stop offset="0.1245" stop-color="#E0E0E0"/>
<stop offset="1" stop-color="#F5F5F5"/>
</linearGradient>
<linearGradient id="paint5_linear_18735_3082" x1="334.765" y1="783.831" x2="561.622" y2="802.781" gradientUnits="userSpaceOnUse">
<stop stop-color="#F8BC9A"/>
<stop offset="0.2494" stop-color="#F6BB9A"/>
<stop offset="0.3888" stop-color="#EEB698"/>
<stop offset="0.5011" stop-color="#E0AE96"/>
<stop offset="0.5989" stop-color="#CCA293"/>
<stop offset="0.6874" stop-color="#B3938F"/>
<stop offset="0.769" stop-color="#93818A"/>
<stop offset="0.8455" stop-color="#6E6B84"/>
<stop offset="0.9179" stop-color="#43527D"/>
<stop offset="0.9846" stop-color="#133675"/>
<stop offset="1" stop-color="#072F73"/>
</linearGradient>
<linearGradient id="paint6_linear_18735_3082" x1="501.334" y1="711.224" x2="730.424" y2="1021.3" gradientUnits="userSpaceOnUse">
<stop stop-color="#F5F5F5"/>
<stop offset="0.0886688" stop-color="#EBEBEB"/>
<stop offset="0.1546" stop-color="#E0E0E0"/>
<stop offset="0.6015" stop-color="#EEEEEE"/>
<stop offset="0.9912" stop-color="#F5F5F5"/>
</linearGradient>
<linearGradient id="paint7_linear_18735_3082" x1="779.114" y1="791.685" x2="558.643" y2="814.545" gradientUnits="userSpaceOnUse">
<stop offset="0.3508" stop-color="#F8BC9A"/>
<stop offset="0.4549" stop-color="#F5BA99"/>
<stop offset="0.5411" stop-color="#EAB498"/>
<stop offset="0.621" stop-color="#D9AA95"/>
<stop offset="0.6971" stop-color="#C19C91"/>
<stop offset="0.7705" stop-color="#A1898C"/>
<stop offset="0.8419" stop-color="#7B7386"/>
<stop offset="0.9116" stop-color="#4D587E"/>
<stop offset="0.9783" stop-color="#193A76"/>
<stop offset="1" stop-color="#072F73"/>
</linearGradient>
<linearGradient id="paint8_linear_18735_3082" x1="363.818" y1="810.882" x2="605.463" y2="954.932" gradientUnits="userSpaceOnUse">
<stop offset="0.1646" stop-color="#F5F5F5"/>
<stop offset="0.4888" stop-color="#EDEDED"/>
<stop offset="0.8131" stop-color="#E0E0E0"/>
</linearGradient>
</defs>
</svg>
